X:1
T:The Well-Tempered Clavier Part II Praeludium XVIII
T:BWV 887
T:J. S. Bach
%%score { ( 1 2 5 ) | ( 3 4 ) }
L:1/8
M:4/4
K:B
V:1 treble nm="Harp"
V:2 treble 
V:5 treble 
V:3 bass 
V:4 bass 
V:1
 G/A/B/c/ d/B/A/G/ ^^F/[GG]/A/=E/ D/ z/ z | z B{B} c2 z B{B} A2 | %2
 G/A/B/c/ d/B/A/G/ ^^F/[GG]/A/=E/ D/ z/ z | z g{g} a2 z g{g} ^^f2 | z B/A/ Bg z B z A/G/ | %5
 z A/G/ Af z A z G/F/ | z G/G/ G^e z G z G/^E/ | F2 z/ A/G/F/ ^E/D/E/G/ ^^F/E/F/A/ | %8
 AG z/ ^F/=E/D/ C/^B,/C/E/ D/C/D/F/ | FE z/ D/C/B,/[I:staff +1] A,/G,/A,/C/ ^B,/A,/B,/D/ | %10
 G,/^^F,/G,/=B,/ A,/G,/A,/C/[I:staff -1] F,/E/D/C/ A/C/A/C/ | %11
 ^B,/=A/G/F/ d/F/d/F/ ^E/=D/C/=B,/ G/B,/G/B,/ | A,/=G/F/E/ c/E/c/E/ D/F/^G/A/ B/F/^E/D/ | %13
 ^^C/B/A/G/ ^e/G/e/G/ F/A/d/e/ f/d/^B/d/ | ^^G/f/^e/d/ ^b/d/b/d/ ^^c/d/e/a/ A/ z/ z | %15
 z/ ^^c/d/^e/ f/4e/4d/b ba z2 | z f{f} g2 z f{f} ^e2 | z d e/4d/4^^c/[dd] z d ^c/B/c/a/ | %18
 B z c z B z A z | z ^e/d/ eg ^^ce A2- | AA/G/ Af z d z ^B | z G/F/ G^e z c z A | z ^^GAd z d^^cb | %23
 a2 z/ a/^e/g/- g^^f z2 | G/A/B/c/ d/B/A/G/ ^^F/[GG]/A/=E/ D/ z/ z | z B{B} c2 z B{B} A2 | %26
 G/A/B/c/ d/B/A/G/ ^^F/[GG]/A/=E/ D/ z/ z | z g{g} a2 z g{g} ^^f2 | z B/A/ Bg z B z A/G/ | %29
 z A/G/ Af z A z G/F/ | z G/G/ G^e z G z G/^E/ | F2 z/ A/G/F/ ^E/D/E/G/ ^^F/E/F/A/ | %32
 AG z/ ^F/=E/D/ C/^B,/C/E/ D/C/D/F/ | FE z/ D/C/B,/[I:staff +1] A,/G,/A,/C/ ^B,/A,/B,/D/ | %34
 G,/^^F,/G,/=B,/ A,/G,/A,/C/[I:staff -1] F,/E/D/C/ A/C/A/C/ | %35
 ^B,/=A/G/F/ d/F/d/F/ ^E/=D/C/=B,/ G/B,/G/B,/ | A,/=G/F/E/ c/E/c/E/ D/F/^G/A/ B/F/^E/D/ | %37
 ^^C/B/A/G/ ^e/G/e/G/ F/A/d/e/ f/d/^B/d/ | ^^G/f/^e/d/ ^b/d/b/d/ ^^c/d/e/a/ A/ z/ z | %39
 z/ ^^c/d/^e/ f/4e/4d/b ba z2 | z f{f} g2 z f{f} ^e2 | z d e/4d/4^^c/[dd] z d ^c/B/c/a/ | %42
 B z c z B z A z | z ^e/d/ eg ^^ce A2- | AA/G/ Af z d z ^B | z G/F/ G^e z c z A | z ^^GAd z d^^cb | %47
 a2 z/ a/^e/g/- g^^f z2 | d/^e/^^f/g/ a/=e/d/c/ ^B/c/d/=A/ G/^F/E/D/ | %49
 E/c/E/c/ ^E/=d/E/d/ c/=A/G/F/ E/d/c/B/ | A/B/c/d/ e/B/=A/G/ ^^F/G/^A/E/ D/C/B,/A,/ | %51
 B,/G/B,/G/ ^B,/=A/B,/A/ G/E/D/C/ B,/A/G/F/ | ^E/F/G/A/ B/=d/c/B/ A/B/c/=G/ F/=E/^D/C/ | %53
 D/E/F/G/ =A/c/B/A/ G/A/B/F/ E/=D/C/B,/ | C=A{A} B2 z A{A} G2 | z F/G/ =Ac z edc | %56
 z B/A/ Bd z f^ed | ^^c/B/A/G/ ^e/G/e/G/ ^^F/=e/d/^c/ a/c/a/c/ | %58
 ^B/=A/G/F/ d/F/d/F/ ^E/=d/c/=B/ g/B/g/B/ | A/c/d/^e/ fA ^^Gfe^G | ^^F/A/^B/^^c/ d^F ^E=d^c=E | %61
 D/^^F/G/A/ BD ^^CBA^C | ^B,=AG=B, A,G^^F=A, | G,F^E=E ED z2 | %64
 G/A/B/c/ d/B/A/G/ ^^F/G/A/E/ D/ z/ z | z g{g} a2 z g{g} ^^f2 | z/ ^^F/G/A/ B/4A/4G/e ed z2 | %67
 z Bc^B z cfd | z ef^e z aaa | [ea]2 z/ e/d/c/ B/c/d/G/ B/A/G/=G/ | %70
 G/B/G/B/ F/d/F/d/ ^E/c/E/c/ C/B/C/B/ | F/A/F/A/ E/c/E/c/ D/B/D/B/ B,/A/B,/A/ | %72
 E/G/E/G/ D/B/D/B/ ^^C/A/C/A/ A,/G/A,/G/ | ^^F/D/G/A/ BA- AG z2 | %74
 d/^e/^^f/g/ a/=e/d/c/ ^B/c/d/=A/ G/^F/E/D/ | E/c/E/c/ ^E/=d/E/d/ c/=A/G/F/ E/d/c/B/ | %76
 A/B/c/d/ e/B/=A/G/ ^^F/G/^A/E/ D/C/B,/A,/ | B,/G/B,/G/ ^B,/=A/B,/A/ G/E/D/C/ B,/A/G/F/ | %78
 ^E/F/G/A/ B/=d/c/B/ A/B/c/=G/ F/=E/^D/C/ | D/E/F/G/ =A/c/B/A/ G/A/B/F/ E/=D/C/B,/ | %80
 C=A{A} B2 z A{A} G2 | z F/G/ =Ac z edc | z B/A/ Bd z f^ed | %83
 ^^c/B/A/G/ ^e/G/e/G/ ^^F/=e/d/^c/ a/c/a/c/ | ^B/=A/G/F/ d/F/d/F/ ^E/=d/c/=B/ g/B/g/B/ | %85
 A/c/d/^e/ fA ^^Gfe^G | ^^F/A/^B/^^c/ d^F ^E=d^c=E | D/^^F/G/A/ BD ^^CBA^C | ^B,=AG=B, A,G^^F=A, | %89
 G,F^E=E ED z2 | G/A/B/c/ d/B/A/G/ ^^F/G/A/E/ D/ z/ z | z g{g} a2 z g{g} ^^f2 | %92
 z/ ^^F/G/A/ B/4A/4G/e ed z2 | z Bc^B z cfd | z ef^e z aaa | [ea]2 z/ e/d/c/ B/c/d/G/ B/A/G/=G/ | %96
 G/B/G/B/ F/d/F/d/ ^E/c/E/c/ C/B/C/B/ | F/A/F/A/ E/c/E/c/ D/B/D/B/ B,/A/B,/A/ | %98
 E/G/E/G/ D/B/D/B/ ^^C/A/C/A/ A,/G/A,/G/ | ^^F/D/G/A/ BA- A!fermata!G z2 |] %100
V:2
[I:staff +1] D2[I:staff -1] z2[I:staff +1] C2[I:staff -1] z2 | z G{G} A2 z G{G} ^^F2 | %2
[I:staff +1] D2[I:staff -1] z2[I:staff +1] C2[I:staff -1] z2 | z B{B} c2 z B{B} A2 | %4
 z G/^^F/ GB z G z ^E | z F/^E/ FA z F z D | z ^^C/D/ ^EG z E z ^^C | D2 z2 z4 | x8 | x8 | x8 | %11
 x8 | x8 | x8 | x8 | x8 | z d{d} ^e2 z d{d} ^^c2 | x8 | z D E/4D/4^^C/D z E/4D/4C/ Dd | %19
 G4- G/A/G/F/ ^E/D/E/^^C/ | DF/^E/ FA z F z E/D/ | z ^E/D/ EG z E z D/^^C/ | %22
 z F/^E/ F/D/^B z B/A/ =B/^G/g- | gf/4^e/4d/ ^^c2- ^^cd z2 | %24
[I:staff +1] D2[I:staff -1] z2[I:staff +1] C2[I:staff -1] z2 | z G{G} A2 z G{G} ^^F2 | %26
[I:staff +1] D2[I:staff -1] z2[I:staff +1] C2[I:staff -1] z2 | z B{B} c2 z B{B} A2 | %28
 z G/^^F/ GB z G z ^E | z F/^E/ FA z F z D | z ^^C/D/ ^EG z E z ^^C | D2 z2 z4 | x8 | x8 | x8 | %35
 x8 | x8 | x8 | x8 | x8 | z d{d} ^e2 z d{d} ^^c2 | x8 | z D E/4D/4^^C/D z E/4D/4C/ Dd | %43
 G4- G/A/G/F/ ^E/D/E/^^C/ | DF/^E/ FA z F z E/D/ | z ^E/D/ EG z E z D/^^C/ | %46
 z F/^E/ F/D/^B z B/A/ =B/^G/g- | gf/4^e/4d/ ^^c2- ^^cd z2 | x8 | x8 | x8 | x8 | x8 | x8 | %54
 z C{C} =D2 z C{C} B,2 | z =A,/B,/ CG z ^^FG^A | z G/^^F/ GA z ^^GA^B | ^E/ z/ z z2 z4 | x8 | x8 | %60
 x8 | x8 | x8 | z2 z G, G,^^F, z2 | x8 | z B{B} c2 z B{B} A2 | z2 z c c^^F z2 | z G=AG z GAF | %68
 z G=dc z =e/^d/ ee | c2 z2 z4 | z2 z[I:staff +1] =A,[I:staff -1] z[I:staff +1] G,G,G, | %71
 F,2[I:staff -1] z[I:staff +1] =G,[I:staff -1] z[I:staff +1] F,F,F, | %72
 F,2[I:staff -1] z[I:staff +1] F,[I:staff -1] z[I:staff +1] ^E,E,=E, | %73
 D,[I:staff -1] G- G^^F- FD z2 | x8 | x8 | x8 | x8 | x8 | x8 | z C{C} =D2 z C{C} B,2 | %81
 z =A,/B,/ CG z ^^FG^A | z G/^^F/ GA z ^^GA^B | ^E/ z/ z z2 z4 | x8 | x8 | x8 | x8 | x8 | %89
 z2 z G, G,^^F, z2 | x8 | z B{B} c2 z B{B} A2 | z2 z c c^^F z2 | z G=AG z GAF | %94
 z G=dc z =e/^d/ ee | c2 z2 z4 | z2 z[I:staff +1] =A,[I:staff -1] z[I:staff +1] G,G,G, | %97
 F,2[I:staff -1] z[I:staff +1] =G,[I:staff -1] z[I:staff +1] F,F,F, | %98
 F,2[I:staff -1] z[I:staff +1] F,[I:staff -1] z[I:staff +1] ^E,E,=E, | %99
 D,[I:staff -1] G- G^^F- F!fermata!D z2 |] %100
V:3
 B,2 z2 A,2 z/ C/B,/A,/ | G,/D/G,/D/ ^^F,/D/F,/D/ G,/D/G,/D/ D,/D/D,/D/ | B,2 z2 A,2 z/ C/B,/A,/ | %3
 G,/D/G,/D/ ^^F,/D/F,/D/ G,/D/G,/D/ D,/D/D,/D/ | G,/D/G,/D/ F,/D/F,/D/ ^E,/C/E,/C/ C,/C/C,/C/ | %5
 F,/C/F,/C/ =F,/C/F,/C/ D,/B,/D,/B,/ B,,/B,/B,,/B,/ | %6
 ^E,/B,/E,/B,/ D,/B,/D,/B,/ ^^C,/A,/C,/A,/ A,,/A,/A,,/A,/ | D,/F,/G,/A,/ B,D, ^^C,B,A,^C, | %8
 ^B,,/D,/^E,/^^F,/ G,=B,, A,,F,^F,=A,, | G,,/^B,,/C,/D,/ E,G,, ^^F,,E,D,^F,, | %10
 ^E,,=D,C,=E,, ^D,,^E,,^^F,,D,, | G,,^A,,^B,,G,, C,^D,^E,C, | F,G,A,F, B,A,G,F, | %13
 ^E,G,^^C,A,, D,^C,^B,,A,, | ^B,,D,^^G,,^E,, A,, z[K:treble] z/ ^G/F/^E/ | %15
 D/^E/F/G/ A/F/E/D/ ^^C/D/E/=B,/[K:bass] A,/G,/F,/^E,/ | %16
 D,/A,/D,/A,/ ^^C,/A,/C,/A,/ D,/A,/D,/A,/ A,,/G,/A,,/G,/ | %17
 B,,/F,/B,,/F,/ A,,/F,/A,,/F,/ B,,/F,/B,,/F,/ ^^F,,/E,/F,,/E,/ | %18
 G,,/D,/G,,/D,/ ^^F,,/D,/F,,/D,/ G,,/D,/G,,/D,/ ^F,,/D,/F,,/D,/ | %19
 ^E,,/D,/^^C,/^B,,/ C,/G,/^E,/G,/ A,,/G,/B,,/G,/ C,/G,/A,,/G,/ | %20
 D,/F,/D,/F,/ C,/A,/C,/A,/ ^B,,/G,/B,,/G,/ G,,/G,/G,,/F,/ | %21
 C,/^E,/C,/E,/ B,,/G,/B,,/G,/ A,,/F,/A,,/F,/ F,,/F,/F,,/E,/ | %22
 ^B,,/D,/B,,/D,/ A,,/F,/A,,/F,/ ^^G,,/^E,/G,,/E,/ ^E,,/E,/E,,/D,/ | %23
 ^^C,/A,,/D,/F,/ A,A,, D,,3/2^^F,,/4A,,/4 D,2 | B,2 z2 A,2 z/ C/B,/A,/ | %25
 G,/D/G,/D/ ^^F,/D/F,/D/ G,/D/G,/D/ D,/D/D,/D/ | B,2 z2 A,2 z/ C/B,/A,/ | %27
 G,/D/G,/D/ ^^F,/D/F,/D/ G,/D/G,/D/ D,/D/D,/D/ | G,/D/G,/D/ F,/D/F,/D/ ^E,/C/E,/C/ C,/C/C,/C/ | %29
 F,/C/F,/C/ =F,/C/F,/C/ D,/B,/D,/B,/ B,,/B,/B,,/B,/ | %30
 ^E,/B,/E,/B,/ D,/B,/D,/B,/ ^^C,/A,/C,/A,/ A,,/A,/A,,/A,/ | D,/F,/G,/A,/ B,D, ^^C,B,A,^C, | %32
 ^B,,/D,/^E,/^^F,/ G,=B,, A,,F,^F,=A,, | G,,/^B,,/C,/D,/ E,G,, ^^F,,E,D,^F,, | %34
 ^E,,=D,C,=E,, ^D,,^E,,^^F,,D,, | G,,^A,,^B,,G,, C,^D,^E,C, | F,G,A,F, B,A,G,F, | %37
 ^E,G,^^C,A,, D,^C,^B,,A,, | ^B,,D,^^G,,^E,, A,, z z/ ^G/F/^E/ | %39
 D/^E/F/G/ A/F/E/D/ ^^C/D/E/=B,/ A,/G,/F,/^E,/ | %40
 D,/A,/D,/A,/ ^^C,/A,/C,/A,/ D,/A,/D,/A,/ A,,/G,/A,,/G,/ | %41
 B,,/F,/B,,/F,/ A,,/F,/A,,/F,/ B,,/F,/B,,/F,/ ^^F,,/E,/F,,/E,/ | %42
 G,,/D,/G,,/D,/ ^^F,,/D,/F,,/D,/ G,,/D,/G,,/D,/ ^F,,/D,/F,,/D,/ | %43
 ^E,,/D,/^^C,/^B,,/ C,/G,/^E,/G,/ A,,/G,/B,,/G,/ C,/G,/A,,/G,/ | %44
 D,/F,/D,/F,/ C,/A,/C,/A,/ ^B,,/G,/B,,/G,/ G,,/G,/G,,/F,/ | %45
 C,/^E,/C,/E,/ B,,/G,/B,,/G,/ A,,/F,/A,,/F,/ F,,/F,/F,,/E,/ | %46
 ^B,,/D,/B,,/D,/ A,,/F,/A,,/F,/ ^^G,,/^E,/G,,/E,/ ^E,,/E,/E,,/D,/ | %47
 ^^C,/A,,/D,/F,/ A,A,, D,,3/2^^F,,/4A,,/4 D,2 | z D,/^E,/ ^^F,A, DC^B,G, | CC,B,,B, =A,=A,,G,,G, | %50
 F,F,,C,E, A,,C,^^F,,D, | G,G,,F,,F, E,E,,D,,D, | C,C,, z/ C/D/^E/ FF, z/ F,/G,/A,/ | %53
 B,B,, z/ B,,/C,/D,/ E,E,, z/ E,,/F,,/G,,/ | %54
 =A,,/E,/A,,/E,/ G,,/E,/G,,/E,/ A,,/E,/A,,/E,/ ^E,,/=D,/E,,/D,/ | %55
 F,,/C,/F,,/C,/ E,,/C,/E,,/C,/ D,,/^^F,,/^A,,/C,/ B,,/A,,/G,,/F,,/ | %56
 G,,/D,/G,,/D,/ F,,/D,/F,,/D,/ ^E,,/^^G,,/^B,,/D,/ C,/B,,/A,,/G,,/ | A,,^B,,^^C,A,, D,^E,^^F,D, | %58
 G,A,^B,G, CD^EC | F2 z/ ^E/D/C/ ^B,/A,/B,/D/ ^^C/B,/C/E/ | %60
 ^ED z/ C/B,/A,/ G,/^^F,/G,/B,/ A,/G,/A,/C/ | CB, z/ A,/G,/F,/ ^E,/D,/=F,/G,/ ^^F,/E,/F,/A,/ | %62
 D,/^^C,/D,/F,/ E,/D,/E,/G,/ C,/^B,,/C,/^E,/ D,/C,/D,/F,/ | %63
 ^B,,/A,,/B,,/D,/ C,/B,,/C,/E,/ A,,/=B,,/C,/A,,/ C,/^^F,/A,/C,/ | %64
 B,,/A,,/G,,/A,,/ B,,/C,/D,/E,/ E,^^F,, z/ C/B,/A,/ | %65
 G,/D/G,/D/ ^^F,/D/F,/D/ G,/D/G,/D/ D,/D/D,/D/ | %66
 G,/A,/B,/C/ D/B,/A,/G,/ ^^F,/G,/A,/E,/ D,/C,/B,,/A,,/ | %67
 G,,/G,/G,,/G,/ F,/D/F,/D/ E,/C/E,/C/ D,/^B,/D,/B,/ | %68
 C,/C/C,/C/[K:treble] B,/G/B,/G/ A,/^^F/A,/F/ G,/G/G,/G/ | ^^F/G/A/E/[K:bass] D/C/B,/A,/ G,B,CD | %70
 EE, z [^B,,D,] z C,/D,/ ^E,E, | E,F,, z [A,,C,] z B,,/C,/ D,D, | %72
 E,E,, z [G,,B,,] z A,,/^B,,/ ^^C,^C,- | C,B,,/C,/ D,D,, G,,3/2B,,/4D,/4 G,2 | %74
 z D,/^E,/ ^^F,A, DC^B,G, | CC,B,,B, =A,=A,,G,,G, | F,F,,C,E, A,,C,^^F,,D, | %77
 G,G,,F,,F, E,E,,D,,D, | C,C,, z/ C/D/^E/ FF, z/ F,/G,/A,/ | %79
 B,B,, z/ B,,/C,/D,/ E,E,, z/ E,,/F,,/G,,/ | %80
 =A,,/E,/A,,/E,/ G,,/E,/G,,/E,/ A,,/E,/A,,/E,/ ^E,,/=D,/E,,/D,/ | %81
 F,,/C,/F,,/C,/ E,,/C,/E,,/C,/ D,,/^^F,,/^A,,/C,/ B,,/A,,/G,,/F,,/ | %82
 G,,/D,/G,,/D,/ F,,/D,/F,,/D,/ ^E,,/^^G,,/^B,,/D,/ C,/B,,/A,,/G,,/ | A,,^B,,^^C,A,, D,^E,^^F,D, | %84
 G,A,^B,G, CD^EC | F2 z/ ^E/D/C/ ^B,/A,/B,/D/ ^^C/B,/C/E/ | %86
 ^ED z/ C/B,/A,/ G,/^^F,/G,/B,/ A,/G,/A,/C/ | CB, z/ A,/G,/F,/ ^E,/D,/=F,/G,/ ^^F,/E,/F,/A,/ | %88
 D,/^^C,/D,/F,/ E,/D,/E,/G,/ C,/^B,,/C,/^E,/ D,/C,/D,/F,/ | %89
 ^B,,/A,,/B,,/D,/ C,/B,,/C,/E,/ A,,/=B,,/C,/A,,/ C,/^^F,/A,/C,/ | %90
 B,,/A,,/G,,/A,,/ B,,/C,/D,/E,/ E,^^F,, z/ C/B,/A,/ | %91
 G,/D/G,/D/ ^^F,/D/F,/D/ G,/D/G,/D/ D,/D/D,/D/ | %92
 G,/A,/B,/C/ D/B,/A,/G,/ ^^F,/G,/A,/E,/ D,/C,/B,,/A,,/ | %93
 G,,/G,/G,,/G,/ F,/D/F,/D/ E,/C/E,/C/ D,/^B,/D,/B,/ | %94
 C,/C/C,/C/ B,/G/B,/G/ A,/^^F/A,/F/ G,/G/G,/G/ | ^^F/G/A/E/ D/C/B,/A,/ G,B,CD | %96
 EE, z [^B,,D,] z C,/D,/ ^E,E, | E,F,, z [A,,C,] z B,,/C,/ D,D, | %98
 E,E,, z [G,,B,,] z A,,/^B,,/ ^^C,^C,- | C,B,,/C,/ D,D,, G,,3/2B,,/4D,/4 !fermata!G,2 |] %100
V:4
 G,2 z2 G,2 z2 | x8 | G,2 z2 G,2 z2 | x8 | x8 | x8 | x8 | x8 | x8 | x8 | x8 | x8 | x8 | x8 | %14
 x6[K:treble] x2 | x6[K:bass] x2 | x8 | x8 | x8 | x8 | x8 | x8 | x8 | x8 | G,2 z2 G,2 z2 | x8 | %26
 G,2 z2 G,2 z2 | x8 | x8 | x8 | x8 | x8 | x8 | x8 | x8 | x8 | x8 | x8 | x8 | x8 | x8 | x8 | x8 | %43
 x8 | x8 | x8 | x8 | x8 | x8 | x8 | x8 | x8 | x8 | x8 | x8 | x8 | x8 | x8 | x8 | x8 | x8 | x8 | %62
 x8 | x8 | x8 | x8 | x8 | x8 | x2[K:treble] x6 | x2[K:bass] x6 | x8 | x8 | x8 | x8 | x8 | x8 | x8 | %77
 x8 | x8 | x8 | x8 | x8 | x8 | x8 | x8 | x8 | x8 | x8 | x8 | x8 | x8 | x8 | x8 | x8 | x8 | x8 | %96
 x8 | x8 | x8 | x8 |] %100
V:5
 x8 | x8 | x8 | x8 | x8 | x8 | x8 | x8 | x8 | x8 | x8 | x8 | x8 | x8 | x8 | x8 | x8 | x8 | x8 | %19
 x8 | x8 | x8 | x8 | x8 | x8 | x8 | x8 | x8 | x8 | x8 | x8 | x8 | x8 | x8 | x8 | x8 | x8 | x8 | %38
 x8 | x8 | x8 | x8 | x8 | x8 | x8 | x8 | x8 | x8 | x8 | x8 | x8 | x8 | x8 | x8 | x8 | x8 | x8 | %57
 x8 | x8 | x8 | x8 | x8 | x8 | x8 | x8 | x8 | x8 | x8 | z4 z ccc | x8 | x8 | x8 | x8 | %73
 z/ D3/2- D/DC/- CB, z2 | x8 | x8 | x8 | x8 | x8 | x8 | x8 | x8 | x8 | x8 | x8 | x8 | x8 | x8 | %88
 x8 | x8 | x8 | x8 | x8 | x8 | z4 z ccc | x8 | x8 | x8 | x8 | z/ D3/2- D/DC/- C!fermata!B, z2 |] %100

